src/scalable/apps/buho.svg

<?xml version="1.0" encoding="UTF-8"?>
<svg width="64" height="64" version="1.1" viewBox="0 0 64 64" xmlns="http://www.w3.org/2000/svg">
 <rect x="5" y="5" width="54" height="54" rx="27" ry="27" fill="#ececec" stroke-width="5.1024" style="paint-order:normal"/>
 <path d="m11.059 27c-0.5637 0-1.099 0.1144-1.5859 0.32031-0.30983 1.5103-0.47266 3.0751-0.47266 4.6797 0 9.3985 5.5922 17.425 13.635 21h20.895l9.4707-9.4707v-12.471c0-2.2486-1.81-4.0586-4.0586-4.0586h-37.883z" fill="#f2a638" style="paint-order:normal"/>
 <path d="m43.529 53.001 9.4706-9.4706-5.2899-0.09182c-2.2482-0.03902-4.009 1.8108-4.0588 4.0588z" fill="#f67400" stroke-width="5.1135" style="paint-order:normal"/>
 <path d="m14.545 17c-3.4561 4.0221-5.5449 9.2568-5.5449 15 0 3.99 1.0063 7.7358 2.7793 11h31.75l9.4707-9.4707v-10.936c-0.90381-2.0239-2.089-3.8915-3.5098-5.5527-0.17986-0.02417-0.36214-0.041016-0.54883-0.041016h-34.396z" fill="#db4957" style="paint-order:normal"/>
 <path d="m32 9c-12.742 0-23 10.258-23 23 0 0.14933 0.0089136 0.29668 0.011719 0.44531 0.60085 0.35073 1.2982 0.55469 2.0469 0.55469h32.471l9.4707-9.4707v-0.93555c-3.5833-8.0243-11.614-13.594-21-13.594z" fill="#239cf3" style="paint-order:normal"/>
 <path d="m43.529 43.001 9.4706-9.4706-5.2899-0.09181c-2.2482-0.03903-4.009 1.8108-4.0588 4.0588z" fill="#c0392b" stroke-width="5.1135" style="paint-order:normal"/>
 <path d="m43.468 33.001 9.5315-9.5165-5.3791-0.04602c-2.2485-0.01923-4.1138 1.8109-4.0588 4.0588-0.0203 2.2702-0.09363 5.5037-0.09363 5.5037z" fill="#2980b9" stroke-width="5.1135" style="paint-order:normal"/>
</svg>

<svg xmlns="http://www.w3.org/2000/svg" width="64" height="64"><rect width="54" height="54" x="5" y="5" fill="#ececec" rx="27" ry="27" style="paint-order:normal"/><path fill="#f2a638" d="M11.059 27a4.06 4.06 0 0 0-1.586.32A23.266 23.266 0 0 0 9 32c0 9.399 5.593 17.425 13.635 21H43.53l9.471-9.47V31.057A4.05 4.05 0 0 0 48.943 27H11.06z" style="paint-order:normal"/><path fill="#f67400" d="m43.529 53.001 9.47-9.47-5.29-.092c-2.248-.04-4.008 1.81-4.058 4.058z" style="paint-order:normal"/><path fill="#db4957" d="M14.545 17A22.92 22.92 0 0 0 9 32a22.97 22.97 0 0 0 2.78 11h31.75L53 33.53V22.592a22.92 22.92 0 0 0-3.51-5.552 4.107 4.107 0 0 0-.549-.041H14.545z" style="paint-order:normal"/><path fill="#239cf3" d="M32 9A22.95 22.95 0 0 0 9 32c0 .15.009.297.012.445.6.351 1.298.555 2.047.555h32.47L53 23.53v-.936A22.943 22.943 0 0 0 32 9z" style="paint-order:normal"/><path fill="#c0392b" d="m43.529 43.001 9.47-9.47-5.29-.092c-2.248-.04-4.008 1.81-4.058 4.058z" style="paint-order:normal"/><path fill="#2980b9" d="m43.468 33.001 9.531-9.517-5.379-.046c-2.248-.019-4.113 1.811-4.058 4.06-.02 2.27-.094 5.503-.094 5.503z" style="paint-order:normal"/></svg>
